X: 1
T: Drummore Bay
R: waltz
M: 3/4
L: 1/4
K: Em
B \
| "Em"e2f/e/ | "Am"g2g   | "D"f2e | "G"d2B |  "A"dBG    | "Bm"F2D | "Em"E3- | E2B |
| "Em"e2f/e/ | "Am"g2g   | "D"f2f | "G"b2a | "Am"g2f/e/ | "Bm"d2d | "Em"e3- | e2d/e/ |
| "Am"g2g    | "D"f2e/d/ | "G"B2B | "D"A2D |  "G"G2A/B/ | "Am"e2d | "Em"B3- | B2g/f/ |
| "Em"e2f/g/ | "D"a2a    | "G"b2a | "C"g2e |  "G"d2B/A/ | "Bm"F2D | "Em"E3- | E2 |]
